contributed-vectors/aral.svg

<svg xmlns="http://www.w3.org/2000/svg" xmlns:xlink="http://www.w3.org/1999/xlink" viewBox="0 0 192 192"><font horiz-adv-x="1000"><font-face font-family="BloggerSans-Bold" underline-position="-143" underline-thickness="20"/><glyph unicode="A" horiz-adv-x="589" d="M186 139h213l35-101c10-28 42-47 68-47 41 0 72 26 72 64 0 5-1 17-3 22L376 646c-14 40-34 68-82 68s-68-29-81-68L18 77c-2-5-3-17-3-22C15 17 48-9 87-9c24 0 56 18 66 47m210 215H223l53 171c9 29 14 67 18 98 4-31 9-69 18-98z"/><glyph unicode="L" horiz-adv-x="503" d="M488 64c0 35-32 62-68 62H203v524c0 34-32 64-70 64-39 0-70-30-70-64V69c0-39 35-69 75-69h282c38 0 68 28 68 64z"/><glyph unicode="R" horiz-adv-x="615" d="M561 493c0 105-60 212-248 212H139c-41 0-76-33-76-72V57c0-36 32-66 69-66 38 0 71 31 71 66v229h68L439 23c13-20 34-31 59-31 45 0 94 53 61 103L422 301c86 28 139 93 139 192m-140 0c0-52-37-81-106-81H203v166h106c91 0 112-43 112-85z"/></font><image overflow="visible" width="241" height="241" xlink:href="30E0AF75.jpg" transform="translate(0 -305.106)"/><path fill="#8CBDFF" d="M0 .3h192v192H0z"/><path fill="#8DBCFF" stroke="#FFF" stroke-width="2.9999700000000002" stroke-miterlimit="10" d="M18.475 96.996l77.851-77.852 77.852 77.852-77.852 77.852z"/><text transform="matrix(1.005 0 0 1 42.599 110.325)" fill="#FFF" font-family="'BloggerSans-Bold'" font-size="45.866">ARAL</text></svg>

<?xml version="1.0" encoding="utf-8"?>
<!-- Generator: Adobe Illustrator 17.1.0, SVG Export Plug-In . SVG Version: 6.00 Build 0)  -->
<!DOCTYPE svg PUBLIC "-//W3C//DTD SVG 1.1//EN" "http://www.w3.org/Graphics/SVG/1.1/DTD/svg11.dtd">
<svg version="1.1" id="Слой_1" xmlns="http://www.w3.org/2000/svg" xmlns:xlink="http://www.w3.org/1999/xlink" x="0px" y="0px"
	 viewBox="0 0 192 192" enable-background="new 0 0 192 192" xml:space="preserve">
<font horiz-adv-x="1000">
<!-- &#xA9; 2014 Sergiy S. Tkachenko / 4th february
&#xA9; 2014 FirstSiteGuide.com
http://creativecommons.org/licenses/by-nd/4.0/ -->
<!-- Copyright: Copyright 2018 Adobe System Incorporated. All rights reserved. -->
<font-face font-family="BloggerSans-Bold" units-per-em="1000" underline-position="-143" underline-thickness="20"/>
<missing-glyph horiz-adv-x="760"/>
<glyph unicode="A" horiz-adv-x="589" d="M186,139l213,0l35,-101C444,10 476,-9 502,-9C543,-9 574,17 574,55C574,60 573,72 571,77l-195,569C362,686 342,714 294,714C246,714 226,685 213,646l-195,-569C16,72 15,60 15,55C15,17 48,-9 87,-9C111,-9 143,9 153,38M363,253l-140,0l53,171C285,453 290,491 294,522C298,491 303,453 312,424z"/>
<glyph unicode="L" horiz-adv-x="503" d="M488,64C488,99 456,126 420,126l-217,0l0,524C203,684 171,714 133,714C94,714 63,684 63,650l0,-581C63,30 98,0 138,0l282,0C458,0 488,28 488,64z"/>
<glyph unicode="R" horiz-adv-x="615" d="M561,493C561,598 501,705 313,705l-174,0C98,705 63,672 63,633l0,-576C63,21 95,-9 132,-9C170,-9 203,22 203,57l0,229l68,0l168,-263C452,3 473,-8 498,-8C543,-8 592,45 559,95l-137,206C508,329 561,394 561,493M421,493C421,441 384,412 315,412l-112,0l0,166l106,0C400,578 421,535 421,493z"/>
</font>

	<image overflow="visible" width="241" height="241" xlink:href="30E0AF75.jpg"  transform="matrix(1 0 0 1 0 -305.1059)">
</image>
<rect x="0" y="0.3" fill="#8CBDFF" width="192" height="192"/>
<rect x="41.3" y="41.9" transform="matrix(0.7071 -0.7071 0.7071 0.7071 -40.3561 96.5718)" fill="#8DBCFF" stroke="#FFFFFF" stroke-width="3" stroke-miterlimit="10" width="110.1" height="110.1"/>
<text transform="matrix(1.005 0 0 1 42.5989 110.3249)" fill="#FFFFFF" font-family="'BloggerSans-Bold'" font-size="45.8661">ARAL</text>
</svg>
